public/arrow-br.svg

<?xml version="1.0" encoding="UTF-8"?>
<!-- Generator: Adobe Illustrator 26.0.1, SVG Export Plug-In . SVG Version: 6.00 Build 0)  -->
<svg xmlns="http://www.w3.org/2000/svg" xmlns:xlink="http://www.w3.org/1999/xlink" version="1.1" id="Layer_1" x="0px" y="0px" viewBox="0 0 129.9 108.5" style="enable-background:new 0 0 129.9 108.5;" xml:space="preserve">
<style type="text/css">
	.st0{fill:#18181A;}
</style>
<g>
	<path class="st0" d="M66.8,2c3.9,0,7.8,0,11.7,0.1C78,22.6,93.3,42,113.2,46.6c3.7,1.2,7.7,1,11.6,1.4c0,3.9,0,7.8,0,11.6   c-7.5,0.4-15.1,1.5-21.7,5.3c-14.8,7.8-24.7,23.9-24.7,40.7c-3.9,0-7.8,0-11.6,0c-0.1-17.9,8.7-35.5,23.2-46.1   c-28.8,0.1-57.7,0-86.5,0c0.1-3.8,0.1-7.7,0-11.6C32.2,48.2,61,48,89.8,48.1c-10.1-8-18.2-18.9-21.2-31.5   C67.4,11.9,66.9,6.9,66.8,2z"></path>
</g>
</svg>

<svg width="130" height="109" viewBox="0 0 130 109" fill="none" xmlns="http://www.w3.org/2000/svg">
<path d="M66.8 2C70.7 2 74.6 2 78.5 2.1C78 22.6 93.3 42 113.2 46.6C116.9 47.8 120.9 47.6 124.8 48C124.8 51.9 124.8 55.8 124.8 59.6C117.3 60 109.7 61.1 103.1 64.9C88.3 72.7 78.4 88.8 78.4 105.6C74.5 105.6 70.6 105.6 66.8 105.6C66.7 87.7 75.5 70.1 90 59.5C61.2 59.6 32.3 59.5 3.5 59.5C3.6 55.7 3.6 51.8 3.5 47.9C32.2 48.2 61 48 89.8 48.1C79.7 40.1 71.6 29.2 68.6 16.6C67.4 11.9 66.9 6.9 66.8 2Z" fill="white"/>
</svg>
